X:1
T:Gloria in Excelsis Deo
T:Gloria in Excelsis Deo
T:Giovanni Battista Casali
C:Giovanni Battista Casali
%%score [ 1 2 3 4 ]
L:1/8
Q:1/4=120
M:4/4
K:G
V:1 treble nm="S."
V:2 treble nm="A."
V:3 treble-8 nm="T."
V:4 bass nm="B."
V:1
 B3 B c2 A2 | B2 d2 c3 c | B2 d4 c2 | c2 B2 A4 | B2 B2 A2 B2 | A4 d3 c | B2 A A B4 | A2 A2 G3 G | %8
w: Et in ter- ra|pax ho- mi- ni-|bus bo- nae|vo- lun- ta-|tis. Lau- da- mus|te. Be- ne-|di- ci- mus te.|A- do- ra- mus|
 F2 A2 d2 d2 | B2 d2 ^c2 d2- | d2 ^c2 d2 d2- | d c B2 e2 e d | c2 c2 d3 c | B4 c2 c2- | c c c4 B2 | %15
w: te. Glo- ri- fi-|ca- * * *|* mus te. Gra-|* ti- as a- gi- mus|ti- bi porp- ter|ma- gnam glo-|* ri- am tu-|
 c4 z4 | z8 | B2 d2 c4 | B2 B4 c2 | A2 A A B2 c2 | c2 B2 c4 | c2 c c B2 B2 | c d e4 d2 | e4 ^c4 | %24
w: am.||Rex cae- les-|tis, De- us|Pa- ter om- ni- *|* po- tens.|Do- mi- ne Fi- li|u- ni- ge- ni-|te, Je-|
 d6 ^c2 | d4 d2 d d | B4 c4 | z4 d2 d d | B2 B2 c2 G2 | c4 B2 d2- | d2 c c c2 B2 | A4 G2 B2 | %32
w: su Chri-|ste. Do- mi- ne|De- us,|Do- mi- ne|De- us, A- gnus|De- i, Fi-|* li- us Pa- *|* tris. Qui|
 B4 B2 B2 | c2 B4 A2 | B4 Bc BA | ^G4 A4- | A2 ^G2 A2 c2 | A4 B2 d2 | d2 d4 ^c2 | d4 A3 B | %40
w: tol- lis pec-|ca- ta mun-|di, mi- * se- *|re- re|_ no- bis. Qui|tol- lis pec-|ca- ta mun-|di, su- sci-|
 A4 A2 B2 | F2 G2 A2 B2 | A2 B2 A4 | B4 z4 | z8 | z6 A2- | A2 d2 B2 d2- | d2 ^c2 d4 | z8 | %49
w: pe de- pre-|ca- ti- o- nem|no- * *|stram.||Mi-|* se- re- re|_ no- bis.||
 z2 A2 A2 A2- | A2 ^G G A4 | z8 | A4 B4 | ^c2 d4 c2 | d2 A2 B2 B2 | c3 c B2 B2 | A2 d d B2 c2 | %57
w: Tu- so- lus|_ Do- mi- nus,||Je- *|* su Chri-|ste. Cum sanc- to|Spi- ri- tu in|glo- ri- a De- i|
 c2 B2 A4 | B2 B2 c2 GA | BcdB cded | c2 G2 c2 B2 | c8 | B8 |] %63
w: Pa- tris. A-|men, a- * * *||* men, a- men,|a-|men.|
V:2
 G3 G E2 F2 | G2 G2 G3 G | G2 G4 A2 | A2 G4 F2 | G2 G2 F2 G2 | F4 z4 | D4 D4 | D6 ^C2 | %8
w: Et in ter- ra|pax ho- mi- ni-|bus bo- nae|vo- lun- ta-|tis. Lau- da- mus|te.|Ad- o-|ra- mus|
 D2 F2 F2 A2 | G6 FG | A3 A F4 | B3 A G4 | E2 E E A2 A2 | G3 G G2 G2 | A2 =F F F4 | E4 D2 G =F | %16
w: te. Glo- ri- fi-|ca- * *|* mus te..|Gra- ti- as|a- gi- mus ti- bi|prop- ter ma- gnam|glo- ri- am tu-|am. Do- mi- ne|
 E4 D2 G2- | G2 G4 F2 | G4 G4- | G2 =F2 F2 E G | G3 G G4 | z6 E2- | E2 ^G2 A3 A | ^G4 A4 | A4 A4 | %25
w: De- us, Rex|_ cae- les-|tis, De-|* us Pa- ter om-|ni- po- tens.|U-|* ni- ge- ni-|te, Je-|su Chri-|
 A4 z4 | G2 G G E4 | E4 z2 A2- | A2 G2 G4- | G2 F2 G4 | G2 G G F2 G2- | G2 F2 G2 G2 | F4 G2 E2 | %33
w: ste.|Do- mi- ne De-|us, A-|* gnus De-|* * i,|Fi- lius Pa- * *|* * tris. Qui-|tol- lis pec-|
 A2 F2 E4 | F4 ^D2 D2 | E6 =F2 | E4 E2 A2 | F4 G2 B2 | A2 F2 G4 | F4 F3 G | F4 F2 G2 | %41
w: ca- ta mun-|di, mi- se-|re- re|no- bis. Qui|tol- lis pec-|ca- ta mun-|di, su- sci-|pe de- pre-|
 A2 B2 F2 G2 | D2 G4 F2 | G2 D2 E4 | D2 D2 E2 F F | G4 F2 F2- | F2 F2 G2 ^G2 | A4 A2 A2- | %48
w: ca- ti- o- nem|no- * *|stram. Qui- se-|des ad dex- te- ram|Pa- tris, mi-|* se- re- re|no- bis. quo-|
 A G F A G2 E2 | F4 E4 | z6 E2 | F2 ^G G A3 E | E4 F2 G2 | A2 A2 G4 | F2 F2 G2 G2 | G2 F2 G2 G2 | %56
w: * ni- am tu so- lus|sanc- tus,|tu|so- lus al- tis- si-|mus, Je- *|* su Chri-|ste. Cum sanc- to|Spi- ri- tu in|
 D2 F F G2 A2 | A2 G4 F2 | G4 G4- | G8- | G8- | G8- | G8 |] %63
w: glo- ri- a De- i|Pa- tris. A-|men, a-||||men.|
V:3
 d3 d c2 d2 | d2 d2 e3 e | d4 e2 e2 | d2 d2 d4 | d4 z4 | d3 c B2 A A | G2 z4 d2- | d2 d2 B2 G2 | %8
w: Et in ter- ra|pax ho- mi- ni-|bus bo- nae|vo- lun- ta-|tis.|Be- ne- di- ci- mus|te. A-|* do- ra- mus|
 A4 z2 d2 | d2 d2 e2 f2 | e3 e d4 | z2 d4 c B | A2 e e d2 d2 | d3 d c2 e2 | c2 c c d4 | G2 c4 B B | %16
w: te. Glo-|ri- fi- ca- *|* mus te.|Gra- ti- as|a- gi- mus ti- bi|prop- ter ma- gnam|glo- ri- am tu-|am. Do- mi- ne|
 c4 G4 | d2 d2 e2 c2 | d4 z2 c2- | c2 d2 d2 e e | d3 d e4 | e2 e e e2 e2 | c2 B2 A3 A | B2 e4 e2 | %24
w: De- us,|Rex cae- les- *|tis, De-|* us Pa- ter om-|ni- po- tens.|Do- mi- ne Fi- li|u- ni- ge- ni-|te, Je- su|
 =fedf e4 | d4 z4 | z4 c2 c c | A4 A2 d2- | d2 d2 e2 d2 | c4 d4 | e2 e e A2 Bc | d4 B2 d2 | %32
w: Chri- * * * *|ste.|Do- mi- ne|De- us, A-|* gnus, a- gnus|De- i,|Fi- li- us Pa- * *|* tris. Qui|
 B4 B2 e2 | e2 ^d2 e4 | ^d4 z4 | B2 B2 A2 d2 | B4 A4 | z6 d2 | d2 d2 e4 | A4 z4 | d4 d4 | %41
w: tol- lis pec-|ca- ta mun-|di,|mi- se- re- re|no- bis.|Pec-|ca- ta mun-|di,|de- pre-|
 d2 d2 d4 | d4 d4 | d2 B2 c4 | B2 B2 c2 A A | B4 A2 d2- | d2 d2 d2 d2 | e4 d2 f2- | %48
w: ca- ti- o-|nem no-|stram. Qui- se-|des ad dex- te- ram|Pa- tris, mi-|* se- re- re|no- bis. quo-|
 f e d f B2 ^c2 | d4 ^c4 | z6 ^c2 | d2 B B ^c3 c | c4 d2 e2- | e2 d2 B2 G2 | A2 d2 B2 e2 | %55
w: * ni- am tu so- lus|sanc- tus,|tu|so- lus al- tis- si-|mus, Je- *|* su Chri- *|ste. Cum sanc- to|
 A3 A G2 d2 | d2 d d e2 e2 | d2 d2 d4 | d2 d2 edec | d4 edcB | c2 d2 e2 d2 | e8 | d8 |] %63
w: Spi- ri- tu in|glo- ri- a De- i|Pa- tris. A-|men, a- * * * *||* * * men,|a-|men.|
V:4
 G,3 G, A,2 D,2 | G,2 B,2 C3 C | G,4 C2 A,2 | F,2 G,2 D,4 | G,4 z4 | z8 | z4 G,4 | F,4 E,3 E, | %8
w: Et in ter- ra|pax ho- mi- ni-|bus bo- nae|vo- lun- ta-|tis.||A-|do- ra- mus|
 D,4 z2 F,2 | G,2 B,2 A,2 D2 | A,3 A, D,4 | G,3 F, E,4 | A,2 A, G, F,2 F,2 | G,3 =F, E,2 C,2 | %14
w: te. Glo-|ri- fi- ca- *|* mus te.|Gra- ti- as|a- gi- mus ti- bi|prop- ter ma- gnam|
 =F,2 A, A, G,4 | C,4 z4 | z8 | G,2 B,2 A,4 | G,4 E,4 | =F,4 G,2 C C | G,3 G, C,2 C2- | %21
w: glo- ri- am tu-|am.||Rex cae- les-|tis, De-|us Pa- ter om-|ni- po- tens. Do-|
 C2 C C ^G,2 G,2 | A,2 E,2 =F,3 F, | E,4 A,4 | D4 A,4 | D,4 z4 | z8 | A,2 A, A, F,4 | G,4 C2 B,2 | %29
w: * mi- ne Fi- li|u- ni- ge- ni-|te, Je-|su Chri-|ste.||Do- mi- ne De-|us, A- gnus|
 A,4 G,4 | C,2 E, E, D,2 G,2 | D,4 G,,2 G,2 | ^D,4 E,2 F,2 | A,2 B,2 C4 | B,4 z4 | %35
w: De- i,|Fi- li- us Pa- *|* tris. Qui-|tol- lis pec-|ca- ta mun-|di,|
 E,=F, E,D, C,2 D,2 | E,4 A,,4 | z6 G,2 | F,2 B,2 E,4 | D,4 z4 | z4 D,4 | D,4 D,2 G,2 | %42
w: mi- * se- * re- re|no- bis.|Pec-|ca- ta mun-|di,|de-|pre- ca- ti-|
 F,2 G,2 D,4 | G,,4 z4 | z8 | z6 D,2- | D,2 D,2 G,2 B,2 | A,4 D,4 | z8 | z2 D,2 A,2 A,2 | %50
w: o- nem no-|stram.||Mi-|* se- re- re|no- bis.||Tu so- lus|
 B,3 B, A,4 | z8 | z2 A,4 G,2- | G,2 F,2 E,4 | D,4 z4 | z6 G,2 | F,2 B, B, E,2 A,2 | F,2 G,2 D,4 | %58
w: Do- mi- nus,||Je- *|* su Chri-|ste.|In|glo- ri- a De- i|Pa- tris. A-|
 G,2 G,2 E,2 C2 | B,2 G,2 C2 C,D, | E,2 B,,2 C,2 G,2 | C8 | G,8 |] %63
w: men, a- * *|* men, a- * *|* * * men,|a-|men.|

